public/skills/git.svg

<svg width="256" height="256" viewBox="0 0 256 256" fill="none" xmlns="http://www.w3.org/2000/svg">
<g clip-path="url(#clip0)">
<path d="M251.172 116.594L139.398 4.82845C132.966 -1.60948 122.525 -1.60948 116.084 4.82845L92.8747 28.0382L122.317 57.4808C129.16 55.1691 137.005 56.7196 142.46 62.1744C147.94 67.6629 149.479 75.5755 147.111 82.4404L175.486 110.816C182.351 108.451 190.272 109.981 195.755 115.473C203.418 123.133 203.418 135.548 195.755 143.213C188.09 150.879 175.675 150.879 168.006 143.213C162.243 137.444 160.819 128.978 163.737 121.877L137.275 95.4146L137.272 165.052C139.14 165.979 140.904 167.212 142.46 168.763C150.122 176.423 150.122 188.838 142.46 196.509C134.794 204.171 122.373 204.171 114.719 196.509C107.057 188.838 107.057 176.423 114.719 168.763C116.612 166.872 118.803 165.443 121.14 164.482V94.1956C118.803 93.2405 116.615 91.8193 114.719 89.9148C108.913 84.1173 107.517 75.598 110.492 68.4691L81.4707 39.4422L4.83056 116.077C-1.61019 122.52 -1.61019 132.961 4.83056 139.399L116.604 251.167C123.039 257.605 133.477 257.605 139.921 251.167L251.172 139.918C257.609 133.478 257.609 123.031 251.172 116.594Z" fill="#DE4C36"/>
</g>
<defs>
<clipPath id="clip0">
<rect width="256" height="256" fill="white"/>
</clipPath>
</defs>
</svg>

<svg xmlns="http://www.w3.org/2000/svg" width="2500" height="2500" preserveAspectRatio="xMinYMin meet" viewBox="0 0 256 256"><path fill="#DE4C36" d="M251.172 116.594L139.4 4.828c-6.433-6.437-16.873-6.437-23.314 0l-23.21 23.21 29.443 29.443c6.842-2.312 14.688-.761 20.142 4.693 5.48 5.489 7.02 13.402 4.652 20.266l28.375 28.376c6.865-2.365 14.786-.835 20.269 4.657 7.663 7.66 7.663 20.075 0 27.74-7.665 7.666-20.08 7.666-27.749 0-5.764-5.77-7.188-14.235-4.27-21.336l-26.462-26.462-.003 69.637a19.82 19.82 0 0 1 5.188 3.71c7.663 7.66 7.663 20.076 0 27.747-7.665 7.662-20.086 7.662-27.74 0-7.663-7.671-7.663-20.086 0-27.746a19.654 19.654 0 0 1 6.421-4.281V94.196a19.378 19.378 0 0 1-6.421-4.281c-5.806-5.798-7.202-14.317-4.227-21.446L81.47 39.442l-76.64 76.635c-6.44 6.443-6.44 16.884 0 23.322l111.774 111.768c6.435 6.438 16.873 6.438 23.316 0l111.251-111.249c6.438-6.44 6.438-16.887 0-23.324"/></svg>
